public/images/logos/github.svg

<?xml version="1.0"?>
<svg xmlns="http://www.w3.org/2000/svg" viewBox="0 0 50 50" fill="#ffffff" width="50px"
  height="50px">
  <path
    d="M17.791,46.836C18.502,46.53,19,45.823,19,45v-5.4c0-0.197,0.016-0.402,0.041-0.61C19.027,38.994,19.014,38.997,19,39 c0,0-3,0-3.6,0c-1.5,0-2.8-0.6-3.4-1.8c-0.7-1.3-1-3.5-2.8-4.7C8.9,32.3,9.1,32,9.7,32c0.6,0.1,1.9,0.9,2.7,2c0.9,1.1,1.8,2,3.4,2 c2.487,0,3.82-0.125,4.622-0.555C21.356,34.056,22.649,33,24,33v-0.025c-5.668-0.182-9.289-2.066-10.975-4.975 c-3.665,0.042-6.856,0.405-8.677,0.707c-0.058-0.327-0.108-0.656-0.151-0.987c1.797-0.296,4.843-0.647,8.345-0.714 c-0.112-0.276-0.209-0.559-0.291-0.849c-3.511-0.178-6.541-0.039-8.187,0.097c-0.02-0.332-0.047-0.663-0.051-0.999 c1.649-0.135,4.597-0.27,8.018-0.111c-0.079-0.5-0.13-1.011-0.13-1.543c0-1.7,0.6-3.5,1.7-5c-0.5-1.7-1.2-5.3,0.2-6.6 c2.7,0,4.6,1.3,5.5,2.1C21,13.4,22.9,13,25,13s4,0.4,5.6,1.1c0.9-0.8,2.8-2.1,5.5-2.1c1.5,1.4,0.7,5,0.2,6.6c1.1,1.5,1.7,3.2,1.6,5 c0,0.484-0.045,0.951-0.11,1.409c3.499-0.172,6.527-0.034,8.204,0.102c-0.002,0.337-0.033,0.666-0.051,0.999 c-1.671-0.138-4.775-0.28-8.359-0.089c-0.089,0.336-0.197,0.663-0.325,0.98c3.546,0.046,6.665,0.389,8.548,0.689 c-0.043,0.332-0.093,0.661-0.151,0.987c-1.912-0.306-5.171-0.664-8.879-0.682C35.112,30.873,31.557,32.75,26,32.969V33 c2.6,0,5,3.9,5,6.6V45c0,0.823,0.498,1.53,1.209,1.836C41.37,43.804,48,35.164,48,25C48,12.318,37.683,2,25,2S2,12.318,2,25 C2,35.164,8.63,43.804,17.791,46.836z" />
</svg>

<svg width="50" height="50" viewBox="0 0 50 50" fill="none" xmlns="http://www.w3.org/2000/svg">
<path d="M17.791 46.836C18.502 46.53 19 45.823 19 45V39.6C19 39.403 19.016 39.198 19.041 38.99C19.027 38.994 19.014 38.997 19 39C19 39 16 39 15.4 39C13.9 39 12.6 38.4 12 37.2C11.3 35.9 11 33.7 9.2 32.5C8.9 32.3 9.1 32 9.7 32C10.3 32.1 11.6 32.9 12.4 34C13.3 35.1 14.2 36 15.8 36C18.287 36 19.62 35.875 20.422 35.445C21.356 34.056 22.649 33 24 33V32.975C18.332 32.793 14.711 30.909 13.025 28C9.36 28.042 6.169 28.405 4.348 28.707C4.29 28.38 4.24 28.051 4.197 27.72C5.994 27.424 9.04 27.073 12.542 27.006C12.43 26.73 12.333 26.447 12.251 26.157C8.74 25.979 5.71 26.118 4.064 26.254C4.044 25.922 4.017 25.591 4.013 25.255C5.662 25.12 8.61 24.985 12.031 25.144C11.952 24.644 11.901 24.133 11.901 23.601C11.901 21.901 12.501 20.101 13.601 18.601C13.101 16.901 12.401 13.301 13.801 12.001C16.501 12.001 18.401 13.301 19.301 14.101C21 13.4 22.9 13 25 13C27.1 13 29 13.4 30.6 14.1C31.5 13.3 33.4 12 36.1 12C37.6 13.4 36.8 17 36.3 18.6C37.4 20.1 38 21.8 37.9 23.6C37.9 24.084 37.855 24.551 37.79 25.009C41.289 24.837 44.317 24.975 45.994 25.111C45.992 25.448 45.961 25.777 45.943 26.11C44.272 25.972 41.168 25.83 37.584 26.021C37.495 26.357 37.387 26.684 37.259 27.001C40.805 27.047 43.924 27.39 45.807 27.69C45.764 28.022 45.714 28.351 45.656 28.677C43.744 28.371 40.485 28.013 36.777 27.995C35.112 30.873 31.557 32.75 26 32.969V33C28.6 33 31 36.9 31 39.6V45C31 45.823 31.498 46.53 32.209 46.836C41.37 43.804 48 35.164 48 25C48 12.318 37.683 2 25 2C12.317 2 2 12.318 2 25C2 35.164 8.63 43.804 17.791 46.836Z" fill="white"/>
</svg>
